app/assets/images/idv/switch.svg

<svg width="206" height="88" viewBox="0 0 206 88" fill="none" xmlns="http://www.w3.org/2000/svg">
<circle cx="44" cy="44" r="42.5" fill="#F2F9FF" stroke="#A8B6C6" stroke-width="3"/>
<mask id="mask0_2309_362" style="mask-type:alpha" maskUnits="userSpaceOnUse" x="0" y="0" width="88" height="88">
<path d="M44 88C68.3005 88 88 68.3005 88 44C88 19.6995 68.3005 0 44 0C19.6995 0 0 19.6995 0 44C0 68.3005 19.6995 88 44 88Z" fill="white"/>
</mask>
<g mask="url(#mask0_2309_362)">
<path d="M61.383 15.1323H26.6176C22.5032 15.1323 19.1678 18.4676 19.1678 22.582V94.5961C19.1678 98.7105 22.5032 102.046 26.6176 102.046H61.383C65.4974 102.046 68.8328 98.7105 68.8328 94.5961V22.582C68.8328 18.4676 65.4974 15.1323 61.383 15.1323Z" fill="white"/>
<path d="M61.3829 15.1323H26.6176C22.5032 15.1323 19.1678 18.4676 19.1678 22.582V27H68.8326V22.582C68.8326 18.4676 65.4972 15.1323 61.3829 15.1323Z" fill="#0071BB"/>
<path d="M52.4577 22.9154C53.2627 22.9154 53.9154 22.2627 53.9154 21.4577C53.9154 20.6526 53.2627 20 52.4577 20C51.6526 20 51 20.6526 51 21.4577C51 22.2627 51.6526 22.9154 52.4577 22.9154Z" fill="white"/>
<path d="M57.3167 22.9154C58.1217 22.9154 58.7744 22.2627 58.7744 21.4577C58.7744 20.6526 58.1217 20 57.3167 20C56.5116 20 55.859 20.6526 55.859 21.4577C55.859 22.2627 56.5116 22.9154 57.3167 22.9154Z" fill="white"/>
<path d="M62.1756 22.9154C62.9806 22.9154 63.6333 22.2627 63.6333 21.4577C63.6333 20.6526 62.9806 20 62.1756 20C61.3705 20 60.7179 20.6526 60.7179 21.4577C60.7179 22.2627 61.3705 22.9154 62.1756 22.9154Z" fill="white"/>
<path d="M25 21.5C25 20.6716 25.6716 20 26.5 20H32.5C33.3284 20 34 20.6716 34 21.5C34 22.3284 33.3284 23 32.5 23H26.5C25.6716 23 25 22.3284 25 21.5Z" fill="white"/>
<path d="M61.3826 103.287H26.6171C21.8245 103.287 17.9258 99.3888 17.9258 94.5961V22.582C17.9258 17.7893 21.8245 13.8906 26.6171 13.8906H61.3826C66.1752 13.8906 70.0739 17.7893 70.0739 22.582V94.5961C70.0739 99.3888 66.1752 103.287 61.3826 103.287ZM26.6171 16.3739C23.1934 16.3739 20.409 19.1582 20.409 22.582V94.5961C20.409 98.0199 23.1934 100.804 26.6171 100.804H61.3826C64.8064 100.804 67.5907 98.0199 67.5907 94.5961V22.582C67.5907 19.1582 64.8064 16.3739 61.3826 16.3739H26.6171Z" fill="#112E51"/>
<path d="M68.8317 40.5855H69.4525C69.7939 40.5855 70.0733 40.8649 70.0733 41.2063V46.1728C70.0733 46.5143 69.7939 46.7936 69.4525 46.7936H68.8317V40.5855Z" fill="#EBF3FA"/>
<path d="M69.453 47.2593H68.3666V40.1199H69.453C70.0521 40.1199 70.5394 40.6073 70.5394 41.2064V46.1728C70.5394 46.7719 70.0521 47.2593 69.453 47.2593ZM69.2978 46.328H69.453C69.5399 46.328 69.6082 46.2598 69.6082 46.1728V41.2064C69.6082 41.1194 69.5399 41.0512 69.453 41.0512H69.2978V46.328Z" fill="#112E51"/>
<path d="M68.8317 48.3457H69.4525C69.7939 48.3457 70.0733 48.6251 70.0733 48.9665V53.933C70.0733 54.2745 69.7939 54.5538 69.4525 54.5538H68.8317V48.3457Z" fill="#EBF3FA"/>
<path d="M69.453 55.0195H68.3666V47.8801H69.453C70.0521 47.8801 70.5394 48.3675 70.5394 48.9665V53.933C70.5394 54.5321 70.0521 55.0195 69.453 55.0195ZM69.2978 54.0882H69.453C69.5399 54.0882 69.6082 54.02 69.6082 53.933V48.9665C69.6082 48.8796 69.5399 48.8113 69.453 48.8113H69.2978V54.0882Z" fill="#112E51"/>
<path d="M19.1677 53.0017H18.5469C18.2055 53.0017 17.9261 52.7223 17.9261 52.3809V41.2063C17.9261 40.8648 18.2055 40.5855 18.5469 40.5855H19.1677V53.0017Z" fill="#EBF3FA"/>
<path d="M19.6328 53.4674H18.5464C17.9473 53.4674 17.46 52.98 17.46 52.381V41.2064C17.46 40.6073 17.9473 40.1199 18.5464 40.1199H19.6328V53.4674ZM18.5464 41.0512C18.4595 41.0512 18.3912 41.1194 18.3912 41.2064V52.381C18.3912 52.4679 18.4595 52.5362 18.5464 52.5362H18.7016V41.0512H18.5464Z" fill="#112E51"/>
</g>
<circle cx="44" cy="44" r="42.5" stroke="#A8B6C6" stroke-width="3"/>
<path fill-rule="evenodd" clip-rule="evenodd" d="M32 55C32 48.371 37.3637 43 43.9837 43C50.6037 43 55.9674 48.371 55.9674 55C55.9674 61.629 50.6037 67 43.9837 67C37.3637 67 32 61.629 32 55ZM49.8596 58.9726C50.0867 58.7451 50.0867 58.3774 49.8596 58.15L46.6898 55L49.8645 51.8548C50.0916 51.6274 50.0916 51.2597 49.8645 51.0322L47.9509 49.1161C47.7238 48.8887 47.3566 48.8887 47.1295 49.1161L43.9838 52.2903L40.8429 49.1113C40.6158 48.8839 40.2485 48.8839 40.0214 49.1113L38.1079 51.0274C37.8808 51.2548 37.8808 51.6226 38.1079 51.85L41.2778 55L38.1079 58.1451C37.8808 58.3726 37.8808 58.7403 38.1079 58.9677L40.0166 60.8839C40.2437 61.1113 40.6109 61.1113 40.838 60.8839L43.9838 57.7097L47.1246 60.8839C47.3518 61.1113 47.719 61.1113 47.9461 60.8839L49.8596 58.9726Z" fill="#E21C3D"/>
<path d="M43.9837 66.5502C37.6146 66.5502 32.4337 61.3694 32.4337 55.0002C32.4337 48.6311 37.6146 43.4503 43.9837 43.4503C50.3528 43.4503 55.5337 48.6311 55.5337 55.0002C55.5337 61.3694 50.3528 66.5502 43.9837 66.5502Z" fill="#E21C3D"/>
<path d="M43.9839 43.4503V66.5503C50.353 66.5503 55.5339 61.3694 55.5339 55.0003C55.5339 48.6312 50.353 43.4503 43.9839 43.4503Z" fill="#B51E23"/>
<path d="M49.7416 50.402L48.582 49.2424L43.9838 53.8407L39.3855 49.2424L38.226 50.402L42.8242 55.0002L38.226 59.5985L39.3855 60.758L43.9838 56.1598L48.582 60.758L49.7416 59.5985L45.1433 55.0002L49.7416 50.402Z" fill="white"/>
<circle cx="44" cy="44" r="42.5" stroke="#A8B6C6" stroke-width="3"/>
<circle cx="162" cy="44" r="42.5" fill="#F2F9FF" stroke="#A8B6C6" stroke-width="3"/>
<line x1="88" y1="44" x2="120" y2="44" stroke="#A8B6C6" stroke-width="2"/>
<circle cx="120" cy="44" r="3" fill="#F2F9FF" stroke="#A8B6C6" stroke-width="2"/>
<circle cx="86" cy="44" r="3" fill="#F2F9FF" stroke="#A8B6C6" stroke-width="2"/>
<path d="M188.032 15.0326H134.828V46.9564H188.032V15.0326Z" fill="#EDF3FB"/>
<path d="M189.126 48.0504H133.734V13.9382H189.126V48.0504ZM135.922 45.862H186.937V16.1267H135.922V45.862Z" fill="#EDF3FB"/>
<path d="M192.293 9H131.369C129.498 9 127.978 10.5174 127.978 12.3908V51.6167H195.684V12.3908C195.684 10.5174 194.167 9 192.293 9Z" fill="#0071BB" stroke="#205493" stroke-width="2" stroke-miterlimit="10"/>
<path d="M118 73.0591H205.66V75.6783C205.66 77.3352 204.317 78.6783 202.66 78.6783H121C119.343 78.6783 118 77.3352 118 75.6783V73.0591Z" fill="#112E51"/>
<rect x="132.61" y="13.4954" width="58.4399" height="33.7153" rx="2" fill="#EDF3FB"/>
<path d="M132.61 33.7246H191.05V45.2107C191.05 46.3153 190.154 47.2107 189.05 47.2107H134.61C133.505 47.2107 132.61 46.3153 132.61 45.2107V33.7246Z" fill="white"/>
<path d="M195.678 51.7061L204.344 71.9435C204.971 73.4072 203.898 75.0376 202.304 75.0376H171.818H151.832H121.346C119.752 75.0376 118.678 73.4072 119.306 71.9435L127.972 51.7061H195.678Z" fill="#0071BB" stroke="#205493" stroke-width="2" stroke-miterlimit="10"/>
<path d="M192.808 63.2017H130.855L133.325 56.2081H190.341L192.808 63.2017Z" fill="#EDF3FB"/>
<path d="M194.405 64.3317H129.256L132.525 55.0776H191.141L194.405 64.3317Z" fill="#205493"/>
<path d="M173.068 71.9353H150.591L151.649 66.3265H172.008L173.068 71.9353Z" fill="#205493"/>
<path d="M167.07 22H162.013V39.9992C166.811 37.8572 168.489 35.0795 168.913 34.2134C168.993 34.0479 169.034 33.8654 169.032 33.6822V23.9796C169.032 23.4546 168.825 22.9512 168.458 22.58C168.276 22.3964 168.06 22.2507 167.822 22.1511C167.584 22.0516 167.329 22.0002 167.07 22Z" fill="#B51E23"/>
<path d="M156.962 22C155.878 22 155 22.8862 155 23.9796V33.683C154.998 33.867 155.039 34.0487 155.118 34.2142C155.544 35.0726 157.242 37.8703 162.014 40V22H156.962Z" fill="#E21D3E"/>
<path d="M163.258 29.7569C163.501 29.5627 163.696 29.3149 163.828 29.0329C163.96 28.7509 164.025 28.4422 164.018 28.131C164.011 27.8198 163.932 27.5145 163.787 27.2388C163.643 26.9631 163.436 26.7245 163.185 26.5416C162.847 26.2989 162.442 26.1678 162.027 26.1665C161.611 26.1676 161.206 26.2986 160.869 26.5413C160.531 26.7839 160.278 27.1261 160.145 27.5198C160.009 27.9142 159.999 28.3409 160.115 28.7415C160.232 29.142 160.469 29.4967 160.795 29.7569C160.575 31.0174 160.357 32.2763 160.142 33.5368C160.76 33.6443 161.387 33.6992 162.014 33.6992C162.65 33.7123 163.287 33.669 163.916 33.5708C163.695 32.2848 163.491 31.0251 163.258 29.7569Z" fill="white"/>
</svg>

<svg xmlns="http://www.w3.org/2000/svg" width="206" height="88" fill="none" viewBox="0 0 206 88"><circle cx="44" cy="44" r="42.5" fill="#F2F9FF" stroke="#A8B6C6" stroke-width="3"/><mask id="a" width="88" height="88" x="0" y="0" maskUnits="userSpaceOnUse" style="mask-type:alpha"><path fill="#fff" d="M44 88c24.3 0 44-19.7 44-44S68.3 0 44 0 0 19.7 0 44s19.7 44 44 44"/></mask><g mask="url(#a)"><path fill="#fff" d="M61.383 15.132H26.618a7.45 7.45 0 0 0-7.45 7.45v72.014a7.45 7.45 0 0 0 7.45 7.45h34.765a7.45 7.45 0 0 0 7.45-7.45V22.582a7.45 7.45 0 0 0-7.45-7.45"/><path fill="#0071BB" d="M61.383 15.132H26.618a7.45 7.45 0 0 0-7.45 7.45V27h49.665v-4.418a7.45 7.45 0 0 0-7.45-7.45"/><path fill="#fff" d="M52.458 22.915a1.458 1.458 0 1 0 0-2.915 1.458 1.458 0 0 0 0 2.915m4.859 0a1.458 1.458 0 1 0 0-2.915 1.458 1.458 0 0 0 0 2.915m4.859 0a1.458 1.458 0 1 0 0-2.915 1.458 1.458 0 0 0 0 2.915M25 21.5a1.5 1.5 0 0 1 1.5-1.5h6a1.5 1.5 0 0 1 0 3h-6a1.5 1.5 0 0 1-1.5-1.5"/><path fill="#112E51" d="M61.383 103.287H26.617c-4.792 0-8.691-3.898-8.691-8.69V22.581c0-4.793 3.899-8.691 8.691-8.691h34.766c4.792 0 8.69 3.898 8.69 8.691v72.014c0 4.793-3.898 8.691-8.69 8.691M26.617 16.374a6.214 6.214 0 0 0-6.208 6.208v72.014a6.214 6.214 0 0 0 6.208 6.208h34.766a6.214 6.214 0 0 0 6.208-6.208V22.582a6.214 6.214 0 0 0-6.208-6.208z"/><path fill="#EBF3FA" d="M68.832 40.586h.62c.342 0 .621.279.621.62v4.967c0 .341-.28.62-.62.62h-.621z"/><path fill="#112E51" d="M69.453 47.26h-1.086v-7.14h1.086c.6 0 1.086.487 1.086 1.086v4.967c0 .599-.487 1.086-1.086 1.086m-.155-.932h.155a.154.154 0 0 0 .155-.155v-4.967a.154.154 0 0 0-.155-.155h-.155z"/><path fill="#EBF3FA" d="M68.832 48.346h.62c.342 0 .621.28.621.62v4.967c0 .342-.28.62-.62.62h-.621z"/><path fill="#112E51" d="M69.453 55.02h-1.086v-7.14h1.086c.6 0 1.086.487 1.086 1.087v4.966c0 .6-.487 1.087-1.086 1.087m-.155-.932h.155a.154.154 0 0 0 .155-.155v-4.966a.154.154 0 0 0-.155-.156h-.155z"/><path fill="#EBF3FA" d="M19.168 53.002h-.621a.623.623 0 0 1-.62-.621V41.206c0-.341.279-.62.62-.62h.62z"/><path fill="#112E51" d="M19.633 53.467h-1.087a1.087 1.087 0 0 1-1.086-1.086V41.206c0-.599.487-1.086 1.086-1.086h1.087zm-1.087-12.416a.154.154 0 0 0-.155.155v11.175c0 .087.069.155.155.155h.156V41.051z"/></g><circle cx="44" cy="44" r="42.5" stroke="#A8B6C6" stroke-width="3"/><path fill="#E21C3D" fill-rule="evenodd" d="M32 55c0-6.629 5.364-12 11.984-12s11.983 5.371 11.983 12-5.363 12-11.983 12S32 61.629 32 55m17.86 3.973a.58.58 0 0 0 0-.823L46.69 55l3.175-3.145a.58.58 0 0 0 0-.823l-1.914-1.916a.58.58 0 0 0-.822 0l-3.145 3.174-3.141-3.179a.58.58 0 0 0-.822 0l-1.913 1.916a.58.58 0 0 0 0 .823l3.17 3.15-3.17 3.145a.58.58 0 0 0 0 .823l1.909 1.916a.58.58 0 0 0 .821 0l3.146-3.174 3.14 3.174a.58.58 0 0 0 .822 0z" clip-rule="evenodd"/><path fill="#E21C3D" d="M43.984 66.55c-6.37 0-11.55-5.18-11.55-11.55 0-6.369 5.18-11.55 11.55-11.55 6.369 0 11.55 5.181 11.55 11.55s-5.181 11.55-11.55 11.55"/><path fill="#B51E23" d="M43.984 43.45v23.1c6.369 0 11.55-5.18 11.55-11.55 0-6.369-5.181-11.55-11.55-11.55"/><path fill="#fff" d="m49.742 50.402-1.16-1.16-4.598 4.599-4.599-4.599-1.159 1.16L42.824 55l-4.598 4.6 1.16 1.159 4.598-4.598 4.598 4.598 1.16-1.16L45.143 55z"/><circle cx="44" cy="44" r="42.5" stroke="#A8B6C6" stroke-width="3"/><circle cx="162" cy="44" r="42.5" fill="#F2F9FF" stroke="#A8B6C6" stroke-width="3"/><path stroke="#A8B6C6" stroke-width="2" d="M88 44h32"/><circle cx="120" cy="44" r="3" fill="#F2F9FF" stroke="#A8B6C6" stroke-width="2"/><circle cx="86" cy="44" r="3" fill="#F2F9FF" stroke="#A8B6C6" stroke-width="2"/><path fill="#EDF3FB" d="M188.032 15.033h-53.204v31.923h53.204z"/><path fill="#EDF3FB" d="M189.126 48.05h-55.392V13.938h55.392zm-53.204-2.188h51.015V16.127h-51.015z"/><path fill="#0071BB" stroke="#205493" stroke-miterlimit="10" stroke-width="2" d="M192.293 9h-60.924a3.39 3.39 0 0 0-3.391 3.39v39.227h67.706V12.39A3.39 3.39 0 0 0 192.293 9Z"/><path fill="#112E51" d="M118 73.06h87.66v2.618a3 3 0 0 1-3 3H121a3 3 0 0 1-3-3z"/><rect width="58.44" height="33.715" x="132.61" y="13.495" fill="#EDF3FB" rx="2"/><path fill="#fff" d="M132.61 33.725h58.44V45.21a2 2 0 0 1-2 2h-54.44a2 2 0 0 1-2-2z"/><path fill="#0071BB" stroke="#205493" stroke-miterlimit="10" stroke-width="2" d="m195.678 51.706 8.666 20.237a2.22 2.22 0 0 1-2.04 3.095h-80.958a2.22 2.22 0 0 1-2.04-3.094l8.666-20.238z"/><path fill="#EDF3FB" d="M192.808 63.202h-61.953l2.47-6.994h57.016z"/><path fill="#205493" d="M194.405 64.332h-65.149l3.269-9.254h58.616zm-21.337 7.603h-22.477l1.058-5.609h20.359z"/><path fill="#B51E23" d="M167.07 22h-5.057v18c4.798-2.143 6.476-4.92 6.9-5.787a1.2 1.2 0 0 0 .119-.53V23.98c0-.525-.207-1.029-.574-1.4a1.96 1.96 0 0 0-1.388-.58"/><path fill="#E21D3E" d="M156.962 22A1.97 1.97 0 0 0 155 23.98v9.703c-.002.184.039.366.118.531.426.859 2.124 3.656 6.896 5.786V22z"/><path fill="#fff" d="M163.258 29.757a2.03 2.03 0 0 0 .76-1.626 2.01 2.01 0 0 0-.833-1.59 2 2 0 0 0-1.158-.375 1.99 1.99 0 0 0-1.882 1.354 2.02 2.02 0 0 0 .65 2.237q-.33 1.89-.653 3.78a11 11 0 0 0 1.872.162c.636.013 1.273-.03 1.902-.128-.221-1.286-.425-2.546-.658-3.814"/></svg>
